X:186
T:H\"or du lilla s{\aa}ta
R:sl\"angpolska
H:efter Bengt H{\aa}kansson (1842-1926), J\"at, fl\"ojt och fiol.
A:Sm{\aa}land
B:Sm{\aa}l\"andsk musiktradition I:321, ur A Str\"ombergs melodisamling
Z:id:hn-sp-186
M:3/4
L:1/16
K:D
f2(fd) B2(BG) A2A2 | B2(Bd) c2(ce) (dc)de | f2(fd) B2(BG) A2A2 |
(BA)Bc e2d2 d4 :||: (fe)fg a2(ag) f2d2 | (g2e2) (f2d2) (e2c2) |
(BA)GF (ED)EF G2B2 | (cB)cd c2e2 a4 | (fe)fg a2(ag) f2d2 |
(g2e2) (f2d2) (e2c2) | (BA)GF (ED)EF G2B2 | (cB)ce e2d2 d4 :|
W:H\"or du lilla s{\aa}ta,
W:hvarf\"or skall du gr{\aa}ta,
W:h\"ar i Sverige \"ar tiden sv{\aa}r...
W:

